X: 34
T:Trip to the Cottage
R:jig
C:Traditional (from John Locke, Shropshire)
S:John Kirkpatrick
A:Shropshire
D:Facing the Music John Kirkpatrick & Sue Harris
M:6/8
L:1/8
Q:100
K:C
ef| g2 e ede | f2 d dcd | c2 e (d2d) | c2 e def | g2 e ede | f2 d dcd |
c2 e def | ecc (c2c) |
(c'2c') (g2g) | fef efg | afd gec | d2 c BAG |(c'2c') (g2g) | fef efg |
abc' bc'd' | c'> c'||
